dist/svgs/core-ui-icons/free/cil-bar-chart.svg

<svg xmlns="http://www.w3.org/2000/svg" viewBox="0 0 512 512"><path d="M136 416h88a24.028 24.028 0 0024-24V184a24.028 24.028 0 00-24-24h-88a24.028 24.028 0 00-24 24v208a24.028 24.028 0 0024 24zm8-224h72v192h-72zM424 16h-88a24.028 24.028 0 00-24 24v352a24.028 24.028 0 0024 24h88a24.028 24.028 0 0024-24V40a24.028 24.028 0 00-24-24zm-8 368h-72V48h72z"/><path d="M48 16H16v480h480v-32H48V16z"/></svg>

<svg xmlns="http://www.w3.org/2000/svg" viewBox="0 0 512 512">
  <path fill="var(--ci-primary-color, currentColor)" d="M136,416h88a24.028,24.028,0,0,0,24-24V184a24.028,24.028,0,0,0-24-24H136a24.028,24.028,0,0,0-24,24V392A24.028,24.028,0,0,0,136,416Zm8-224h72V384H144Z" class="ci-primary"/>
  <path fill="var(--ci-primary-color, currentColor)" d="M424,16H336a24.028,24.028,0,0,0-24,24V392a24.028,24.028,0,0,0,24,24h88a24.028,24.028,0,0,0,24-24V40A24.028,24.028,0,0,0,424,16Zm-8,368H344V48h72Z" class="ci-primary"/>
  <polygon fill="var(--ci-primary-color, currentColor)" points="48 16 16 16 16 496 496 496 496 464 48 464 48 16" class="ci-primary"/>
</svg>
